usr/share/icons/biglinux-icons-material-dark/symbolic/actions/dblatex.svg

<svg xmlns="http://www.w3.org/2000/svg" viewBox="0 0 16 16">
<defs id="defs3051">
<style id="current-color-scheme" type="text/css">
.ColorScheme-Contrast{color:#dedede}
</style>
</defs>
<path d="M8 2a6 2 0 0 0-6 2v8a6 2 0 0 0 6 2 6 2 0 0 0 6-2V4a6 2 0 0 0-6-2m0 1a5 1 0 0 1 5 1 5 1 0 0 1-5 1 5 1 0 0 1-5-1 5 1 0 0 1 5-1M3 5.102A6 2 0 0 0 8 6a6 2 0 0 0 5-.896V8a5 1 0 0 1-5 1 5 1 0 0 1-5-1zm0 4A6 2 0 0 0 8 10a6 2 0 0 0 5-.896V12a5 1 0 0 1-5 1 5 1 0 0 1-5-1z" class="ColorScheme-Contrast" style="fill:currentColor;fill-opacity:1;stroke:none"/>
</svg>

<svg xmlns="http://www.w3.org/2000/svg" viewBox="0 0 16 16">
  <defs id="defs3051">
    <style type="text/css" id="current-color-scheme">
      .ColorScheme-Text {
        color:#dedede;
      }
      </style>
  </defs>
      <path 
          style="fill:currentColor;fill-opacity:1;stroke:none" 
          d="M 8,2 A 6,2 0 0 0 2,4 l 0,8 a 6,2 0 0 0 6,2 6,2 0 0 0 6,-2 L 14,4 A 6,2 0 0 0 8,2 Z M 8,3 A 5,1 0 0 1 13,4 5,1 0 0 1 8,5 5,1 0 0 1 3,4 5,1 0 0 1 8,3 Z M 3,5.1015625 A 6,2 0 0 0 8,6 6,2 0 0 0 13,5.1035156 L 13,8 A 5,1 0 0 1 8,9 5,1 0 0 1 3,8 L 3,5.1015625 Z m 0,4 A 6,2 0 0 0 8,10 6,2 0 0 0 13,9.1035156 L 13,12 A 5,1 0 0 1 8,13 5,1 0 0 1 3,12 L 3,9.1015625 Z" 
          class="ColorScheme-Text"/>
</svg>
